icon/ii/loop.svg

<svg xmlns="http://www.w3.org/2000/svg" viewBox="0 0 8 8" height="1em" width="1em">
  <path d="M6 0v1h-5c-.55 0-1 .45-1 1v1h1v-1h5v1l2-1.5-2-1.5zm-4 4l-2 1.5 2 1.5v-1h5c.55 0 1-.45 1-1v-1h-1v1h-5v-1z"/>
</svg>

<svg xmlns="http://www.w3.org/2000/svg" width="8" height="8"><path d="M6 0v1H1c-.55 0-1 .45-1 1v1h1V2h5v1l2-1.5L6 0zM2 4 0 5.5 2 7V6h5c.55 0 1-.45 1-1V4H7v1H2V4z"/></svg>
